X: 171
T:Gentleman Hill's Quickstep. JaW.170
M:6/8
L:1/8
Q:100
S:James Winder Ms, Lancashire, 1835-41
R:Quickstep
O:England
A:Wyresdale,Lancashire
N:There are some segnos and P's around but it is unclear to which lines
N:they refer so I have omitted them.CGP
H:1/8
Z:vmp.Chris Partington, Aug 2004
K:C
B|cde efd|ceg fab|c'ba gfe|edd d2G|!
cde efd|ceg fab|c'ge gec|dGG G2:|!
|:g|gag _bag|fgf agf|efg afd|cBd Gef|!
gag _bag|fgf agf|egc' gec|(dGA Bcd)|!
|cde efd|ceg gab|c'ba gfe|edd d2G|!
cde efd|ceg fab|c'ge def|ecc cde|!
fgf agf|efe gfe|def GAB|ced cde|!
fgf agf|efe gfe|def gab|c'cc {d}cBc|!
def gab|c'3ceg|c'3 ceg|c'cc ccc|c3-c3|]
